.mozilla/firefox/firefox-themes/Monterey/icons/save-to-pocket.svg

<svg xmlns="http://www.w3.org/2000/svg" width="16" height="16" fill="context-fill" fill-opacity="context-fill-opacity">
 <path d="m3 1c-1.108 0-2 0.892-2 2v5c0 3.866 3.134 7 7 7 3.866 0 7-3.134 7-7v-5c0-1.108-0.892-2-2-2zm0 1h10c0.554 0 1 0.446 1 1v5c0 3.3137-2.6863 6-6 6-3.3137 0-6-2.6863-6-6v-5c0-0.554 0.446-1 1-1zm0.75781 2.9629c-0.12781 0-0.25558 0.050503-0.35352 0.14844-0.19587 0.19587-0.19587 0.51116 0 0.70703l4.2422 4.2422c0.19587 0.19587 0.51116 0.19587 0.70703 0l4.2422-4.2422c0.19587-0.19587 0.19587-0.51116 0-0.70703s-0.51116-0.19587-0.70703 0l-3.8887 3.8887-3.8887-3.8887c-0.097934-0.097934-0.22571-0.14844-0.35352-0.14844z"/>
</svg>

<?xml version="1.0" encoding="UTF-8" standalone="no"?>
<svg
   width="16"
   height="16"
   version="1.1"
   id="svg7"
   sodipodi:docname="save-to-pocket.svg"
   inkscape:version="1.2.2 (b0a8486541, 2022-12-01)"
   xmlns:inkscape="http://www.inkscape.org/namespaces/inkscape"
   xmlns:sodipodi="http://sodipodi.sourceforge.net/DTD/sodipodi-0.dtd"
   xmlns="http://www.w3.org/2000/svg"
   xmlns:svg="http://www.w3.org/2000/svg">
  <sodipodi:namedview
     id="namedview9"
     pagecolor="#ffffff"
     bordercolor="#666666"
     borderopacity="1.0"
     inkscape:showpageshadow="2"
     inkscape:pageopacity="0.0"
     inkscape:pagecheckerboard="0"
     inkscape:deskcolor="#d1d1d1"
     showgrid="true"
     inkscape:zoom="29.5"
     inkscape:cx="8.6779661"
     inkscape:cy="6.7118644"
     inkscape:window-width="1920"
     inkscape:window-height="1012"
     inkscape:window-x="0"
     inkscape:window-y="32"
     inkscape:window-maximized="1"
     inkscape:current-layer="svg7">
    <inkscape:grid
       type="xygrid"
       id="grid238" />
  </sodipodi:namedview>
  <defs
     id="defs3">
    <style
       id="current-color-scheme"
       type="text/css">.ColorScheme-Text { color:#363636; }</style>
  </defs>
  <path
     d="M 3,1 C 1.892,1 1,1.892 1,3 v 5 c 0,3.865993 3.1340068,7 7,7 3.865993,0 7,-3.134007 7,-7 V 3 C 15,1.892 14.108,1 13,1 Z m 0,1 h 10 c 0.554,0 1,0.446 1,1 v 5 c 0,3.313708 -2.686292,6 -6,6 C 4.6862915,14 2,11.313708 2,8 V 3 C 2,2.446 2.446,2 3,2 Z m 0.75781,2.96286 c -0.12781,0 -0.25558,0.050503 -0.35352,0.14844 -0.19587,0.19587 -0.19587,0.51116 0,0.70703 l 4.2422,4.2422 c 0.19587,0.19587 0.51116,0.19587 0.70703,0 l 4.2422,-4.2422 c 0.19587,-0.19587 0.19587,-0.51116 0,-0.70703 -0.19587,-0.19587 -0.51116,-0.19587 -0.70703,0 L 7.99999,9 4.11129,5.1113 C 4.013356,5.013366 3.88558,4.96286 3.75777,4.96286 Z"
     fill="#333333"
     stroke-linecap="round"
     stroke-linejoin="round"
     stroke-width="2.0755"
     id="path5"
     sodipodi:nodetypes="ssssssssssssssssccsssssscscc" />
</svg>
